assets/svg/github.svg

<?xml version="1.0" encoding="UTF-8"?>
<svg width="16px" height="16px" viewBox="0 0 16 16" version="1.1" xmlns="http://www.w3.org/2000/svg" xmlns:xlink="http://www.w3.org/1999/xlink">
    <title>github</title>
    <g id="Garage" stroke="none" stroke-width="1" fill="none" fill-rule="evenodd">
        <g id="Yard-/-Pricing-Copy-2" transform="translate(-584.000000, -4091.000000)" fill="#FFFFFF" fill-rule="nonzero">
            <g id="Footer" transform="translate(149.000000, 3925.000000)">
                <g id="Group-20" transform="translate(317.000000, 78.000000)">
                    <g id="Group-22" transform="translate(0.000000, 88.000000)">
                        <g id="github" transform="translate(118.000000, 0.000000)">
                            <path d="M8.0027511,-1.26634942e-06 C4.07848505,-0.00191785934 0.732488972,2.84352205 0.103975407,6.71712998 C-0.524538157,10.5907379 1.75010878,14.3481571 5.47365472,15.5871379 C5.87234709,15.661676 6.01968992,15.4137934 6.01968992,15.2023131 C6.01968992,15.0116341 6.01275614,14.3815268 6.00928925,13.7132838 C3.78354576,14.1969149 3.31378215,12.7694229 3.31378215,12.7694229 C2.94975868,11.8454967 2.42625826,11.5993475 2.42625826,11.5993475 C1.70081149,11.1027155 2.48086178,11.1139829 2.48086178,11.1139829 C3.28431358,11.1694531 3.70727418,11.9373693 3.70727418,11.9373693 C4.42058683,13.1594481 5.57766143,12.806692 6.03442421,12.6021455 C6.10636218,12.0855788 6.31350887,11.7328228 6.54232362,11.5326099 C4.7655424,11.3306635 2.89862205,10.645086 2.89862205,7.58035506 C2.89862205,6.70669874 3.21064216,5.99425281 3.72200846,5.43348332 C3.63966982,5.23240369 3.3657855,4.41855122 3.80001349,3.31694687 C3.80001349,3.31694687 4.47172346,3.10199968 5.9997553,4.1368664 C6.65235841,3.95938347 7.32557803,3.86903798 8.00188438,3.86818241 C8.67875543,3.86911852 9.35253735,3.95946125 10.0057469,4.1368664 C11.5311786,3.10199968 12.2028885,3.31694687 12.2028885,3.31694687 C12.6379833,4.41855122 12.3640989,5.23240369 12.2808936,5.43348332 C12.7939933,5.99338608 13.10428,6.70756546 13.10428,7.58035506 C13.10428,10.6520197 11.233026,11.3289301 9.45191119,11.5265428 C9.73879635,11.7744254 9.9944795,12.2615235 9.9944795,13.0077716 C9.9944795,14.078174 9.98581228,14.9388294 9.98581228,15.2023131 C9.98581228,15.4155268 10.1296882,15.6651429 10.5344476,15.5862712 C13.7990959,14.4961762 16.0004156,11.4399513 16,7.99811532 C16,3.58121649 12.4196499,0.000478343227 8.0027511,-1.26634942e-06 Z M3.00002859,11.3930675 C2.98269413,11.4329368 2.92029011,11.4450709 2.86308642,11.4173358 C2.80501601,11.3913341 2.77208056,11.3375973 2.79114845,11.297728 C2.8084829,11.2569921 2.87088693,11.2457247 2.92982406,11.2725931 C2.98702775,11.2985948 3.0199632,11.3531983 3.00002859,11.3939342 L3.00002859,11.3930675 Z M3.39352062,11.7440902 C3.35538483,11.7796258 3.28084669,11.763158 3.23057678,11.7076878 C3.17857343,11.6513508 3.16817276,11.5776794 3.20717527,11.5412771 C3.24617779,11.5066082 3.31811576,11.5222092 3.37098583,11.5785461 C3.42298919,11.6348831 3.43338986,11.7085545 3.39352062,11.7440902 L3.39352062,11.7440902 Z M3.66307133,12.1930524 C3.61453487,12.2277213 3.53392967,12.1956526 3.48452649,12.1237146 C3.43599002,12.0535101 3.43599002,11.9677046 3.48625993,11.9339024 C3.53566312,11.8992335 3.61453487,11.9304355 3.66480478,12.00064 C3.71334124,12.0734447 3.71334124,12.1583835 3.66307133,12.1930524 Z M4.11983411,12.713086 C4.07649798,12.7616224 3.98289195,12.7486216 3.91442087,12.6827507 C3.84508306,12.6186132 3.82514845,12.5267406 3.8693513,12.4790709 C3.91268742,12.4305344 4.00716018,12.444402 4.07563126,12.5094062 C4.14496906,12.5735436 4.16663713,12.6654162 4.11983411,12.7139527 L4.11983411,12.713086 Z M4.70920544,12.8890306 C4.69013754,12.9523014 4.60086512,12.9800365 4.50985925,12.9540348 C4.41972011,12.9262997 4.35991625,12.8526283 4.37898415,12.7893575 C4.39718532,12.7269535 4.48732447,12.6966182 4.57833034,12.7252201 C4.6693362,12.7529552 4.72827334,12.8257599 4.71007216,12.8898974 L4.70920544,12.8890306 Z M5.38091541,12.9635688 C5.38351558,13.0294397 5.30637727,13.0849099 5.21190451,13.0849099 C5.11656503,13.0875101 5.03856001,13.03464 5.03769328,12.9696358 C5.03769328,12.9028982 5.11223142,12.8482947 5.20843762,12.8474279 C5.3037771,12.8448278 5.38178213,12.8985646 5.38178213,12.9635688 L5.38091541,12.9635688 Z M6.04049126,12.9384338 C6.05175866,13.0025713 5.98588774,13.0684422 5.89141499,13.0857766 C5.79867568,13.1031111 5.71287014,13.0641086 5.70073603,12.9991044 C5.68946863,12.9341002 5.75707299,12.8682293 5.84981231,12.8508948 C5.94428506,12.8335604 6.02835715,12.8734296 6.04049126,12.9384338 L6.04049126,12.9384338 Z" id="Shape"></path>
                        </g>
                    </g>
                </g>
            </g>
        </g>
    </g>
</svg>

<svg width="16" height="16" xmlns="http://www.w3.org/2000/svg">
  <path d="M8.003 0a7.998 7.998 0 00-2.53 15.587c.4.075.547-.173.547-.385 0-.19-.007-.82-.01-1.489-2.226.484-2.696-.944-2.696-.944-.364-.924-.888-1.17-.888-1.17-.725-.496.055-.485.055-.485.803.055 1.226.823 1.226.823.714 1.222 1.87.87 2.327.665.072-.516.28-.87.508-1.07C4.766 11.332 2.9 10.646 2.9 7.58c0-.873.312-1.586.823-2.147-.082-.2-.356-1.014.078-2.116 0 0 .672-.215 2.2.82a7.666 7.666 0 012.002-.269c.677.001 1.35.091 2.004.269 1.525-1.035 2.197-.82 2.197-.82.435 1.102.161 1.915.078 2.116.513.56.823 1.275.823 2.147 0 3.072-1.871 3.749-3.652 3.947.287.247.542.735.542 1.48 0 1.071-.008 1.932-.008 2.195 0 .214.144.463.548.384A7.999 7.999 0 008.003 0zM3 11.393c-.017.04-.08.052-.137.024-.058-.026-.09-.08-.072-.12.017-.04.08-.051.139-.024.057.026.09.08.07.12zm.394.351c-.039.036-.113.02-.163-.036-.052-.057-.063-.13-.024-.167.04-.034.111-.019.164.038.052.056.062.13.023.165zm.27.45c-.05.034-.13.002-.18-.07-.048-.07-.048-.156.002-.19.05-.035.129-.004.179.067.048.072.048.157-.002.192zm.456.52c-.044.048-.137.035-.206-.031-.069-.064-.089-.156-.045-.204.044-.048.138-.035.207.03.069.065.09.156.044.205zm.59.175c-.02.063-.11.091-.2.065-.09-.028-.15-.101-.131-.165.018-.062.108-.092.2-.064.09.028.15.1.131.165v-.001zm.67.075c.004.065-.074.12-.168.12-.095.004-.173-.05-.174-.114 0-.067.074-.122.17-.123.096-.002.174.052.174.117H5.38zm.66-.026c.012.065-.054.13-.149.148-.092.017-.178-.022-.19-.087-.012-.065.056-.13.149-.148.094-.017.178.022.19.087z" fill="#FFF" fill-rule="nonzero"/>
</svg>
